LUTs/Nuke_Round_Trip.cube
TITLE "Generated by Foundry::LUT"
LUT_3D_SIZE 32
0.000000 0.000000 0.000000
0.027178 0.003695 0.000794
0.049498 0.006078 0.001587
0.071498 0.007880 0.002379
0.093409 0.009577 0.003176
0.115333 0.011221 0.003950
0.137321 0.012826 0.004682
0.159331 0.014398 0.005137
0.181422 0.015947 0.005561
0.203585 0.017473 0.005976
0.225773 0.018991 0.006373
0.248095 0.020495 0.006773
0.270417 0.021984 0.007160
0.292858 0.023474 0.007542
0.315319 0.024947 0.007921
0.337866 0.026413 0.008299
0.360448 0.027880 0.008663
0.383093 0.029337 0.009033
0.405807 0.030792 0.009399
0.428564 0.032244 0.009757
0.451399 0.033696 0.010117
0.474252 0.035135 0.010472
0.497165 0.036579 0.010825
0.520144 0.038015 0.011176
0.543149 0.039442 0.011526
0.566184 0.040878 0.011875
0.589321 0.042311 0.012221
0.612480 0.043741 0.012566
0.635627 0.045164 0.012907
0.658893 0.046590 0.013252
0.682211 0.048019 0.013587
0.705489 0.049438 0.013930
0.013268 0.034350 0.003435
0.036288 0.035787 0.004172
0.058416 0.037227 0.004848
0.080364 0.038669 0.005274
0.102279 0.040100 0.005690
0.124229 0.041529 0.006103
0.146226 0.042965 0.006499
0.168269 0.044396 0.006894
0.190373 0.045819 0.007285
0.212556 0.047246 0.007664
0.234790 0.048662 0.008036
0.257116 0.050090 0.008413
0.279474 0.051505 0.008782
0.301927 0.052930 0.009143
0.324424 0.054354 0.009513
0.347005 0.055776 0.009870
0.369589 0.057192 0.010226
0.392278 0.058602 0.010585
0.415016 0.060031 0.010933
0.437815 0.061438 0.011287
0.460622 0.062852 0.011633
0.483517 0.064273 0.011985
0.506455 0.065683 0.012327
0.529440 0.067094 0.012674
0.552479 0.068507 0.013011
0.575546 0.069928 0.013358
0.598697 0.071349 0.013694
0.621858 0.072755 0.014034
0.645046 0.074161 0.014375
0.668297 0.075587 0.014712
0.691635 0.076996 0.015045
0.714925 0.078401 0.015383
0.022818 0.063505 0.005821
0.045278 0.064917 0.006225
0.067311 0.066335 0.006627
0.089234 0.067757 0.007011
0.111163 0.069167 0.007399
0.133105 0.070576 0.007783
0.155133 0.071989 0.008155
0.177220 0.073405 0.008528
0.199358 0.074820 0.008896
0.221543 0.076232 0.009262
0.243806 0.077634 0.009623
0.266164 0.079049 0.009984
0.288536 0.080461 0.010335
0.311016 0.081873 0.010693
0.333570 0.083285 0.011044
0.356135 0.084707 0.011394
0.378784 0.086112 0.011743
0.401470 0.087532 0.012090
0.424217 0.088945 0.012436
0.447048 0.090357 0.012782
0.469908 0.091765 0.013123
0.492792 0.093164 0.013464
0.515745 0.094581 0.013803
0.538779 0.096008 0.014144
0.561811 0.097410 0.014480
0.584893 0.098828 0.014819
0.608056 0.100236 0.015152
0.631209 0.101640 0.015487
0.654443 0.103055 0.015819
0.677719 0.104478 0.016148
0.701017 0.105881 0.016482
0.724381 0.107308 0.016811
0.032009 0.092421 0.007517
0.054216 0.093829 0.007901
0.076185 0.095229 0.008273
0.098109 0.096647 0.008641
0.120034 0.098055 0.009011
0.142010 0.099476 0.009376
0.164058 0.100892 0.009733
0.186154 0.102297 0.010098
0.208332 0.103720 0.010452
0.230549 0.105132 0.010806
0.252831 0.106536 0.011155
0.275202 0.107953 0.011506
0.297630 0.109357 0.011854
0.320121 0.110779 0.012200
0.342678 0.112186 0.012544
0.365290 0.113608 0.012885
0.387950 0.115017 0.013229
0.410665 0.116438 0.013571
0.433452 0.117850 0.013907
0.456258 0.119269 0.014248
0.479162 0.120682 0.014587
0.502076 0.122078 0.014920
0.525043 0.123512 0.015254
0.548073 0.124927 0.015592
0.571125 0.126338 0.015923
0.594230 0.127753 0.016255
0.617443 0.129160 0.016590
0.640596 0.130572 0.016915
0.663859 0.131997 0.017246
0.687105 0.133406 0.017577
0.710483 0.134826 0.017909
0.733852 0.136254 0.018236
0.041040 0.121309 0.009121
0.063115 0.122733 0.009490
0.085054 0.124147 0.009847
0.106967 0.125550 0.010207
0.128908 0.126961 0.010560
0.150906 0.128383 0.010913
0.172976 0.129790 0.011267
0.195128 0.131210 0.011612
0.217301 0.132634 0.011964
0.239561 0.134052 0.012305
0.261855 0.135472 0.012652
0.284284 0.136885 0.012994
0.306714 0.138301 0.013336
0.329233 0.139710 0.013677
0.351817 0.141142 0.014017
0.374463 0.142545 0.014351
0.397121 0.143972 0.014688
0.419854 0.145392 0.015027
0.442677 0.146813 0.015359
0.465497 0.148225 0.015696
0.488439 0.149640 0.016028
0.511324 0.151068 0.016362
0.534387 0.152476 0.016691
0.557405 0.153918 0.017018
0.580488 0.155319 0.017350
0.603595 0.156753 0.017675
0.626816 0.158170 0.018009
0.650004 0.159594 0.018337
0.673244 0.161003 0.018662
0.696572 0.162440 0.018991
0.719961 0.163864 0.019314
0.743334 0.165266 0.019643
0.050005 0.150283 0.010673
0.071989 0.151714 0.011024
0.093916 0.153125 0.011374
0.115846 0.154549 0.011722
0.137800 0.155974 0.012069
0.159832 0.157391 0.012414
0.181937 0.158807 0.012761
0.204078 0.160238 0.013101
0.226297 0.161647 0.013442
0.248588 0.163068 0.013780
0.270904 0.164492 0.014121
0.293368 0.165926 0.014456
0.315815 0.167342 0.014795
0.338384 0.168763 0.015128
0.360982 0.170195 0.015463
0.383610 0.171603 0.015800
0.406339 0.173025 0.016129
0.429073 0.174448 0.016463
0.451880 0.175883 0.016792
0.474793 0.177296 0.017122
0.497674 0.178742 0.017454
0.520617 0.180144 0.017782
0.543683 0.181576 0.018109
0.566733 0.183019 0.018437
0.589830 0.184436 0.018765
0.613002 0.185868 0.019094
0.636213 0.187274 0.019418
0.659439 0.188715 0.019742
0.682655 0.190136 0.020066
0.705998 0.191561 0.020394
0.729394 0.192996 0.020719
0.752766 0.194405 0.021038
0.058920 0.179380 0.012179
0.080862 0.180807 0.012522
0.102778 0.182246 0.012864
0.124721 0.183663 0.013212
0.146723 0.185087 0.013548
0.168763 0.186519 0.013890
0.190873 0.187926 0.014230
0.213064 0.189373 0.014563
0.235299 0.190794 0.014902
0.257618 0.192225 0.015236
0.279970 0.193661 0.015567
0.302446 0.195074 0.015904
0.324929 0.196498 0.016236
0.347493 0.197922 0.016564
0.370132 0.199358 0.016895
0.392803 0.200796 0.017226
0.415515 0.202214 0.017558
0.438287 0.203640 0.017889
0.461151 0.205065 0.018216
0.484061 0.206505 0.018538
0.506969 0.207945 0.018867
0.529920 0.209364 0.019190
0.553021 0.210790 0.019516
0.576098 0.212217 0.019848
0.599213 0.213657 0.020165
0.622383 0.215084 0.020495
0.645585 0.216502 0.020821
0.668846 0.217957 0.021139
0.692082 0.219384 0.021464
0.715437 0.220794 0.021784
0.738843 0.222234 0.022103
0.762275 0.223679 0.022429
0.067801 0.208581 0.013655
0.089727 0.210035 0.013994
0.111663 0.211462 0.014334
0.133621 0.212895 0.014670
0.155623 0.214293 0.015003
0.177699 0.215733 0.015340
0.199847 0.217158 0.015678
0.222061 0.218613 0.016003
0.244325 0.220045 0.016343
0.266678 0.221456 0.016672
0.289041 0.222897 0.016999
0.311544 0.224348 0.017330
0.334047 0.225773 0.017655
0.356629 0.227201 0.017989
0.379296 0.228640 0.018317
0.401998 0.230079 0.018641
0.424724 0.231496 0.018970
0.447526 0.232949 0.019293
0.470400 0.234373 0.019622
0.493298 0.235808 0.019947
0.516266 0.237245 0.020271
0.539262 0.238685 0.020596
0.562356 0.240105 0.020922
0.585453 0.241556 0.021241
0.608575 0.242983 0.021561
0.631742 0.244417 0.021888
0.654985 0.245850 0.022208
0.678272 0.247294 0.022528
0.701526 0.248742 0.022848
0.724899 0.250158 0.023169
0.748308 0.251619 0.023489
0.771733 0.253049 0.023810
0.076668 0.237904 0.015110
0.098595 0.239319 0.015445
0.120540 0.240770 0.015782
0.142523 0.242190 0.016110
0.164541 0.243654 0.016444
0.186649 0.245088 0.016773
0.208833 0.246525 0.017103
0.231051 0.247972 0.017434
0.253359 0.249388 0.017762
0.275727 0.250842 0.018089
0.298144 0.252272 0.018417
0.320657 0.253701 0.018744
0.343163 0.255140 0.019073
0.365791 0.256583 0.019396
0.388471 0.258026 0.019721
0.411201 0.259481 0.020045
0.433962 0.260905 0.020372
0.456786 0.262330 0.020698
0.479660 0.263800 0.021016
0.502585 0.265237 0.021338
0.525567 0.266678 0.021665
0.548562 0.268096 0.021984
0.571677 0.269547 0.022307
0.594794 0.271002 0.022627
0.617916 0.272433 0.022948
0.641132 0.273864 0.023271
0.664405 0.275334 0.023591
0.687664 0.276777 0.023911
0.710995 0.278221 0.024226
0.734374 0.279639 0.024546
0.757781 0.281096 0.024866
0.781256 0.282553 0.025179
0.085550 0.267323 0.016545
0.107460 0.268773 0.016876
0.129412 0.270224 0.017207
0.151437 0.271652 0.017538
0.173500 0.273116 0.017869
0.195612 0.274547 0.018196
0.217815 0.275990 0.018517
0.240075 0.277434 0.018847
0.262394 0.278878 0.019176
0.284785 0.280334 0.019502
0.307237 0.281758 0.019827
0.329778 0.283215 0.020151
0.352309 0.284652 0.020473
0.374972 0.286088 0.020799
0.397649 0.287525 0.021118
0.420398 0.288974 0.021442
0.443195 0.290423 0.021769
0.466030 0.291873 0.022088
0.488942 0.293334 0.022406
0.511888 0.294762 0.022727
0.534869 0.296224 0.023047
0.557897 0.297664 0.023372
0.581044 0.299104 0.023693
0.604164 0.300544 0.024005
0.627345 0.301996 0.024330
0.650543 0.303448 0.024650
0.673797 0.304901 0.024963
0.697135 0.306365 0.025285
0.720420 0.307795 0.025605
0.743800 0.309260 0.025917
0.767261 0.310700 0.026237
0.790724 0.312142 0.026556
0.094406 0.296841 0.017969
0.116339 0.298281 0.018297
0.138301 0.299755 0.018620
0.160334 0.301201 0.018950
0.182427 0.302653 0.019273
0.204572 0.304071 0.019601
0.226791 0.305528 0.019925
0.249080 0.306993 0.020250
0.271425 0.308423 0.020575
0.293844 0.309891 0.020900
0.316312 0.311333 0.021219
0.338864 0.312775 0.021546
0.361441 0.314219 0.021865
0.384126 0.315674 0.022185
0.406831 0.317128 0.022505
0.429626 0.318583 0.022826
0.452405 0.320049 0.023146
0.475288 0.321480 0.023466
0.498184 0.322946 0.023786
0.521186 0.324388 0.024107
0.544169 0.325830 0.024426
0.567232 0.327273 0.024746
0.590390 0.328724 0.025067
0.613524 0.330178 0.025384
0.636692 0.331633 0.025704
0.659930 0.333093 0.026016
0.683211 0.334560 0.026329
0.706564 0.335990 0.026657
0.729856 0.337459 0.026968
0.753296 0.338901 0.027287
0.776753 0.340380 0.027605
0.800202 0.341822 0.027914
0.103277 0.326516 0.019375
0.125218 0.327996 0.019707
0.147221 0.329451 0.020031
0.169281 0.330906 0.020350
0.191374 0.332324 0.020676
0.213572 0.333790 0.021002
0.235808 0.335257 0.021323
0.258120 0.336687 0.021643
0.280500 0.338162 0.021970
0.302964 0.339604 0.022292
0.325434 0.341046 0.022612
0.348019 0.342529 0.022932
0.370636 0.343983 0.023247
0.393327 0.345437 0.023568
0.416056 0.346892 0.023888
0.438843 0.348357 0.024210
0.461680 0.349785 0.024530
0.484560 0.351251 0.024850
0.507482 0.352688 0.025163
0.530495 0.354165 0.025482
0.553514 0.355605 0.025802
0.576601 0.357087 0.026114
0.599728 0.358538 0.026439
0.622909 0.359989 0.026758
0.646124 0.361441 0.027069
0.669341 0.362904 0.027381
0.692641 0.364367 0.027699
0.716008 0.365829 0.028018
0.739368 0.367261 0.028327
0.762750 0.368735 0.028650
0.786255 0.370210 0.028967
0.809747 0.371648 0.029275
0.112147 0.356249 0.020777
0.134116 0.357698 0.021096
0.156115 0.359188 0.021420
0.178207 0.360639 0.021747
0.200335 0.362096 0.022066
0.222551 0.363558 0.022391
0.244813 0.365021 0.022711
0.267161 0.366447 0.023031
0.289580 0.367921 0.023349
0.312037 0.369395 0.023669
0.334560 0.370830 0.023990
0.357164 0.372313 0.024306
0.379769 0.373760 0.024626
0.402490 0.375206 0.024947
0.425272 0.376656 0.025261
0.448048 0.378154 0.025581
0.470937 0.379612 0.025901
0.493804 0.381070 0.026213
0.516786 0.382537 0.026531
0.539795 0.383967 0.026850
0.562852 0.385437 0.027170
0.585911 0.386910 0.027484
0.609094 0.388350 0.027803
0.632274 0.389831 0.028112
0.655527 0.391272 0.028430
0.678769 0.392762 0.028747
0.702092 0.394214 0.029064
0.725418 0.395666 0.029372
0.748836 0.397121 0.029692
0.772270 0.398625 0.030007
0.795762 0.400088 0.030322
0.819233 0.401551 0.030628
0.121026 0.386112 0.022163
0.143014 0.387590 0.022490
0.165048 0.389071 0.022810
0.187170 0.390512 0.023130
0.209336 0.391996 0.023450
0.231555 0.393448 0.023771
0.253857 0.394900 0.024091
0.276220 0.396352 0.024410
0.298658 0.397852 0.024730
0.321158 0.399316 0.025043
0.343685 0.400779 0.025367
0.366330 0.402244 0.025687
0.388951 0.403677 0.025999
0.411697 0.405152 0.026313
0.434475 0.406626 0.026632
0.457315 0.408065 0.026951
0.480205 0.409551 0.027262
0.503096 0.411036 0.027587
0.526091 0.412481 0.027897
0.549100 0.413935 0.028215
0.572180 0.415432 0.028527
0.595306 0.416887 0.028844
0.618494 0.418346 0.029161
0.641668 0.419812 0.029478
0.664896 0.421278 0.029791
0.688223 0.422744 0.030106
0.711565 0.424217 0.030421
0.734896 0.425694 0.030727
0.758312 0.427171 0.031049
0.781736 0.428606 0.031362
0.805272 0.430093 0.031675
0.828781 0.431539 0.031990
0.129916 0.416097 0.023552
0.151922 0.417552 0.023872
0.173999 0.419016 0.024186
0.196122 0.420482 0.024506
0.218300 0.421948 0.024826
0.240558 0.423415 0.025147
0.262905 0.424892 0.025466
0.285286 0.426369 0.025786
0.307760 0.427804 0.026098
0.330288 0.429286 0.026413
0.352839 0.430774 0.026733
0.375480 0.432219 0.027052
0.398137 0.433707 0.027364
0.420901 0.435160 0.027682
0.443713 0.436659 0.028000
0.466562 0.438115 0.028310
0.489445 0.439571 0.028633
0.512404 0.441038 0.028941
0.535400 0.442505 0.029258
0.558439 0.443971 0.029575
0.581550 0.445440 0.029890
0.604631 0.446918 0.030205
0.627874 0.448395 0.030520
0.651082 0.449873 0.030828
0.674349 0.451355 0.031141
0.697641 0.452799 0.031463
0.720993 0.454288 0.031767
0.744384 0.455776 0.032084
0.767795 0.457227 0.032395
0.791207 0.458726 0.032714
0.814785 0.460181 0.033025
0.838268 0.461636 0.033340
0.138806 0.446135 0.024931
0.160835 0.447613 0.025244
0.182942 0.449091 0.025564
0.205093 0.450525 0.025884
0.227318 0.452011 0.026196
0.249604 0.453500 0.026514
0.271945 0.454944 0.026834
0.294388 0.456433 0.027153
0.316844 0.457888 0.027467
0.339382 0.459387 0.027785
0.361980 0.460842 0.028095
0.384642 0.462299 0.028413
0.407323 0.463809 0.028730
0.430136 0.465275 0.029046
0.452974 0.466740 0.029354
0.475829 0.468209 0.029674
0.498740 0.469685 0.029989
0.521710 0.471161 0.030304
0.544704 0.472637 0.030619
0.567781 0.474117 0.030930
0.590901 0.475604 0.031243
0.614047 0.477045 0.031556
0.637277 0.478532 0.031868
0.660476 0.480023 0.032188
0.683767 0.481475 0.032498
0.707074 0.482972 0.032808
0.730432 0.484424 0.033119
0.753827 0.485927 0.033436
0.777233 0.487389 0.033744
0.800752 0.488896 0.034061
0.824308 0.490358 0.034369
0.847821 0.491826 0.034683
0.147723 0.476234 0.026296
0.169775 0.477721 0.026615
0.191906 0.479208 0.026934
0.214067 0.480704 0.027245
0.236317 0.482156 0.027562
0.258626 0.483653 0.027880
0.280997 0.485105 0.028198
0.303448 0.486566 0.028510
0.325975 0.488074 0.028826
0.348545 0.489536 0.029143
0.371141 0.490998 0.029451
0.393851 0.492516 0.029773
0.416555 0.493988 0.030088
0.439357 0.495461 0.030403
0.462210 0.496933 0.030709
0.485105 0.498415 0.031031
0.508042 0.499898 0.031344
0.531023 0.501381 0.031657
0.554055 0.502817 0.031971
0.577103 0.504309 0.032282
0.600244 0.505802 0.032592
0.623382 0.507295 0.032903
0.646662 0.508741 0.033215
0.669890 0.510244 0.033532
0.693201 0.511700 0.033850
0.716524 0.513203 0.034157
0.739893 0.514659 0.034467
0.763344 0.516171 0.034782
0.786738 0.517637 0.035096
0.810239 0.519104 0.035400
0.833831 0.520617 0.035717
0.857375 0.522091 0.036027
0.156635 0.506455 0.027665
0.178717 0.507948 0.027975
0.200851 0.509398 0.028293
0.223069 0.510901 0.028606
0.245332 0.512357 0.028923
0.267677 0.513861 0.029240
0.290086 0.515320 0.029548
0.312564 0.516833 0.029872
0.335073 0.518300 0.030187
0.357660 0.519766 0.030502
0.380282 0.521234 0.030810
0.403022 0.522758 0.031123
0.425736 0.524234 0.031436
0.448569 0.525710 0.031749
0.471429 0.527187 0.032065
0.494356 0.528673 0.032376
0.517306 0.530160 0.032696
0.540281 0.531646 0.033006
0.563348 0.533132 0.033311
0.586470 0.534580 0.033629
0.609613 0.536076 0.033946
0.632806 0.537573 0.034253
0.656070 0.539069 0.034566
0.679321 0.540524 0.034880
0.702602 0.542031 0.035184
0.725994 0.543489 0.035498
0.749364 0.544995 0.035807
0.772807 0.546458 0.036128
0.796248 0.547975 0.036438
0.819727 0.549443 0.036739
0.843354 0.550910 0.037053
0.866927 0.552430 0.037370
0.165559 0.536752 0.029020
0.187665 0.538248 0.029337
0.209839 0.539747 0.029656
0.232060 0.541205 0.029971
0.254356 0.542711 0.030286
0.276712 0.544169 0.030592
0.299172 0.545676 0.030911
0.321659 0.547143 0.031224
0.344207 0.548660 0.031537
0.366834 0.550128 0.031850
0.389471 0.551595 0.032159
0.412233 0.553119 0.032479
0.434989 0.554597 0.032790
0.457844 0.556075 0.033100
0.480704 0.557552 0.033417
0.503656 0.559034 0.033725
0.526615 0.560522 0.034042
0.549638 0.562009 0.034350
0.572732 0.563497 0.034664
0.595818 0.564986 0.034978
0.619020 0.566483 0.035282
0.642203 0.567981 0.035596
0.665442 0.569478 0.035907
0.688726 0.570925 0.036218
0.712077 0.572431 0.036529
0.735417 0.573938 0.036839
0.758843 0.575395 0.037156
0.782277 0.576902 0.037462
0.805761 0.578364 0.037780
0.829279 0.579881 0.038087
0.852876 0.581348 0.038398
0.876474 0.582865 0.038711
0.174498 0.567182 0.030385
0.196632 0.568629 0.030691
0.218813 0.570127 0.031013
0.241072 0.571627 0.031325
0.263417 0.573134 0.031638
0.285787 0.574591 0.031943
0.308248 0.576098 0.032263
0.330760 0.577555 0.032573
0.353370 0.579072 0.032884
0.375988 0.580539 0.033196
0.398665 0.582056 0.033513
0.421445 0.583522 0.033830
0.444187 0.585045 0.034138
0.467095 0.586521 0.034448
0.489993 0.587997 0.034762
0.512921 0.589474 0.035076
0.535931 0.591003 0.035380
0.558935 0.592489 0.035697
0.582056 0.593974 0.036007
0.605202 0.595460 0.036318
0.628403 0.596946 0.036629
0.651568 0.598439 0.036941
0.674902 0.599934 0.037248
0.698204 0.601430 0.037565
0.721508 0.602925 0.037872
0.744908 0.604424 0.038179
0.768330 0.605877 0.038492
0.791753 0.607382 0.038805
0.815279 0.608887 0.039118
0.838768 0.610392 0.039421
0.862395 0.611853 0.039738
0.886018 0.613368 0.040047
0.183431 0.597614 0.031730
0.205591 0.599109 0.032047
0.227818 0.600605 0.032357
0.250097 0.602100 0.032677
0.272465 0.603595 0.032987
0.294864 0.605099 0.033302
0.317341 0.606603 0.033609
0.339899 0.608056 0.033927
0.362519 0.609561 0.034234
0.385158 0.611070 0.034546
0.407859 0.612532 0.034860
0.430646 0.614047 0.035174
0.453456 0.615509 0.035479
0.476324 0.617024 0.035797
0.499249 0.618547 0.036108
0.522234 0.620018 0.036418
0.545238 0.621490 0.036729
0.568280 0.623014 0.037033
0.591413 0.624489 0.037350
0.614569 0.625970 0.037657
0.637758 0.627504 0.037974
0.660967 0.628985 0.038283
0.684323 0.630466 0.038596
0.707640 0.631955 0.038899
0.730953 0.633445 0.039212
0.754358 0.634989 0.039515
0.777833 0.636479 0.039834
0.801302 0.637972 0.040143
0.824805 0.639472 0.040452
0.848326 0.640971 0.040761
0.871913 0.642471 0.041073
0.895555 0.643917 0.041377
0.192385 0.628139 0.033081
0.214547 0.629620 0.033398
0.236826 0.631103 0.033705
0.259132 0.632647 0.034023
0.281493 0.634137 0.034330
0.303933 0.635627 0.034644
0.326444 0.637118 0.034958
0.349034 0.638615 0.035263
0.371648 0.640114 0.035577
0.394335 0.641614 0.035887
0.417053 0.643114 0.036198
0.439873 0.644614 0.036509
0.462699 0.646070 0.036819
0.485607 0.647579 0.037135
0.508555 0.649088 0.037442
0.531550 0.650597 0.037759
0.554548 0.652056 0.038066
0.577606 0.653575 0.038377
0.600759 0.655094 0.038690
0.623960 0.656558 0.038993
0.647148 0.658076 0.039306
0.670384 0.659548 0.039610
0.693704 0.661076 0.039930
0.717040 0.662550 0.040239
0.740418 0.664078 0.040548
0.763818 0.665552 0.040857
0.787282 0.667089 0.041160
0.810792 0.668572 0.041475
0.834269 0.670055 0.041779
0.857884 0.671537 0.042094
0.881496 0.673078 0.042400
0.905088 0.674570 0.042710
0.201366 0.658784 0.034428
0.223562 0.660312 0.034742
0.245850 0.661785 0.035056
0.268193 0.663314 0.035361
0.290591 0.664787 0.035676
0.313057 0.666266 0.035987
0.335587 0.667803 0.036298
0.358195 0.669286 0.036609
0.380833 0.670768 0.036920
0.403554 0.672306 0.037237
0.426285 0.673797 0.037544
0.449091 0.675288 0.037851
0.471966 0.676780 0.038158
0.494863 0.678272 0.038471
0.517826 0.679765 0.038784
0.540864 0.681266 0.039097
0.563893 0.682766 0.039400
0.586980 0.684267 0.039717
0.610132 0.685768 0.040026
0.633339 0.687272 0.040335
0.656558 0.688782 0.040644
0.679820 0.690292 0.040953
0.703168 0.691802 0.041268
0.726513 0.693312 0.041573
0.749892 0.694828 0.041888
0.773345 0.696291 0.042192
0.796795 0.697810 0.042500
0.820283 0.699329 0.042810
0.843857 0.700792 0.043120
0.867438 0.702319 0.043430
0.891073 0.703847 0.043729
0.914683 0.705319 0.044046
0.210343 0.689454 0.035777
0.232564 0.690964 0.036087
0.254889 0.692474 0.036398
0.277237 0.693984 0.036709
0.299687 0.695503 0.037012
0.322160 0.696966 0.037329
0.344729 0.698485 0.037636
0.367339 0.700005 0.037954
0.389991 0.701470 0.038262
0.412730 0.702998 0.038575
0.435503 0.704526 0.038878
0.458373 0.705998 0.039191
0.481203 0.707527 0.039504
0.504169 0.709002 0.039813
0.527139 0.710540 0.040122
0.550177 0.712020 0.040430
0.573235 0.713501 0.040739
0.596331 0.715039 0.041051
0.619545 0.716524 0.041355
0.642739 0.718071 0.041670
0.665991 0.719561 0.041975
0.689230 0.721050 0.042290
0.712590 0.722539 0.042599
0.735997 0.724035 0.042910
0.759374 0.725591 0.043220
0.782817 0.727089 0.043519
0.806311 0.728588 0.043831
0.829838 0.730086 0.044136
0.853381 0.731591 0.044452
0.876988 0.733098 0.044757
0.900645 0.734606 0.045062
0.924270 0.736113 0.045370
0.219298 0.720248 0.037115
0.241586 0.721737 0.037432
0.263928 0.723228 0.037739
0.286322 0.724726 0.038046
0.308771 0.726225 0.038356
0.331270 0.727723 0.038669
0.353862 0.729279 0.038982
0.376498 0.730780 0.039285
0.399194 0.732287 0.039599
0.421948 0.733794 0.039908
0.444705 0.735301 0.040217
0.467584 0.736809 0.040526
0.490495 0.738319 0.040835
0.513438 0.739776 0.041149
0.536462 0.741293 0.041453
0.559481 0.742809 0.041768
0.582561 0.744325 0.042072
0.605721 0.745844 0.042378
0.628879 0.747369 0.042688
0.652111 0.748836 0.042998
0.675399 0.750361 0.043308
0.698654 0.751886 0.043619
0.722081 0.753355 0.043933
0.745433 0.754889 0.044238
0.768867 0.756423 0.044542
0.792300 0.757899 0.044859
0.815835 0.759433 0.045164
0.839333 0.760910 0.045474
0.862903 0.762453 0.045785
0.886534 0.763937 0.046084
0.910210 0.765480 0.046395
0.933848 0.766964 0.046706
0.228317 0.751065 0.038450
0.250593 0.752531 0.038763
0.272953 0.754063 0.039076
0.295373 0.755597 0.039390
0.317873 0.757073 0.039695
0.340417 0.758607 0.040004
0.363019 0.760082 0.040313
0.385675 0.761622 0.040622
0.408395 0.763106 0.040931
0.431156 0.764649 0.041247
0.453938 0.766133 0.041551
0.476865 0.767617 0.041866
0.499759 0.769166 0.042170
0.522758 0.770658 0.042478
0.545773 0.772151 0.042788
0.568829 0.773703 0.043098
0.591925 0.775195 0.043408
0.615091 0.776693 0.043718
0.638293 0.778194 0.044023
0.661513 0.779755 0.044339
0.684823 0.781256 0.044644
0.708093 0.782757 0.044949
0.731533 0.784262 0.045255
0.754889 0.785772 0.045566
0.778314 0.787282 0.045877
0.801790 0.788792 0.046187
0.825364 0.790301 0.046487
0.848895 0.791814 0.046800
0.872427 0.793332 0.047105
0.896074 0.794851 0.047421
0.919766 0.796369 0.047726
0.943415 0.797888 0.048031
0.237335 0.781977 0.039791
0.259639 0.783478 0.040100
0.282023 0.784987 0.040409
0.304486 0.786497 0.040718
0.326985 0.788007 0.041029
0.349560 0.789516 0.041344
0.372156 0.791026 0.041649
0.394860 0.792543 0.041964
0.417594 0.794061 0.042268
0.440390 0.795580 0.042577
0.463187 0.797098 0.042887
0.486109 0.798617 0.043198
0.509022 0.800080 0.043508
0.532078 0.801607 0.043808
0.555090 0.803134 0.044125
0.578162 0.804661 0.044430
0.601327 0.806127 0.044746
0.624489 0.807659 0.045051
0.647687 0.809194 0.045359
0.670933 0.810730 0.045670
0.694266 0.812205 0.045969
0.717555 0.813741 0.046280
0.741001 0.815217 0.046590
0.764412 0.816762 0.046894
0.787825 0.818306 0.047210
0.811345 0.819789 0.047515
0.834894 0.821334 0.047820
0.858392 0.822817 0.048125
0.882012 0.824308 0.048435
0.905613 0.825861 0.048745
0.929314 0.827352 0.049056
0.953039 0.828906 0.049354
0.246340 0.812881 0.041127
0.268676 0.814416 0.041442
0.291097 0.815897 0.041746
0.313584 0.817441 0.042051
0.336100 0.818986 0.042367
0.358691 0.820469 0.042677
0.381346 0.822013 0.042987
0.404046 0.823500 0.043297
0.426791 0.824991 0.043597
0.449612 0.826545 0.043910
0.472458 0.828036 0.044215
0.495415 0.829589 0.044531
0.518347 0.831082 0.044836
0.541350 0.832582 0.045141
0.564439 0.834144 0.045451
0.587539 0.835644 0.045762
0.610652 0.837143 0.046072
0.633871 0.838643 0.046372
0.657100 0.840213 0.046683
0.680376 0.841721 0.046999
0.703677 0.843229 0.047304
0.727032 0.844737 0.047609
0.750420 0.846245 0.047914
