LUTs/Nuke_Round_Trip.cube
TITLE "Generated by Foundry::LUT"
LUT_3D_SIZE 8
DOMAIN_MIN 0.000000 0.000000 0.000000
DOMAIN_MAX 0.903226 0.903226 0.903226
0.000000 0.000000 0.000000
0.093409 0.009577 0.003176
0.181422 0.015947 0.005561
0.270417 0.021984 0.007160
0.360448 0.027880 0.008663
0.451399 0.033696 0.010117
0.543149 0.039442 0.011526
0.635627 0.045164 0.012907
0.041040 0.121309 0.009121
0.128908 0.126961 0.010560
0.217301 0.132634 0.011964
0.306714 0.138301 0.013336
0.397121 0.143972 0.014688
0.488439 0.149640 0.016028
0.580488 0.155319 0.017350
0.673244 0.161003 0.018662
0.076668 0.237904 0.015110
0.164541 0.243654 0.016444
0.253359 0.249388 0.017762
0.343163 0.255140 0.019073
0.433962 0.260905 0.020372
0.525567 0.266678 0.021665
0.617916 0.272433 0.022948
0.710995 0.278221 0.024226
0.112147 0.356249 0.020777
0.200335 0.362096 0.022066
0.289580 0.367921 0.023349
0.379769 0.373760 0.024626
0.470937 0.379612 0.025901
0.562852 0.385437 0.027170
0.655527 0.391272 0.028430
0.748836 0.397121 0.029692
0.147723 0.476234 0.026296
0.236317 0.482156 0.027562
0.325975 0.488074 0.028826
0.416555 0.493988 0.030088
0.508042 0.499898 0.031344
0.600244 0.505802 0.032592
0.693201 0.511700 0.033850
0.786738 0.517637 0.035096
0.183431 0.597614 0.031730
0.272465 0.603595 0.032987
0.362519 0.609561 0.034234
0.453456 0.615509 0.035479
0.545238 0.621490 0.036729
0.637758 0.627504 0.037974
0.730953 0.633445 0.039212
0.824805 0.639472 0.040452
0.219298 0.720248 0.037115
0.308771 0.726225 0.038356
0.399194 0.732287 0.039599
0.490495 0.738319 0.040835
0.582561 0.744325 0.042072
0.675399 0.750361 0.043308
0.768867 0.756423 0.044542
0.862903 0.762453 0.045785
0.255360 0.843920 0.042455
0.345213 0.849969 0.043696
0.436017 0.856041 0.044926
0.527618 0.862141 0.046164
0.620018 0.868205 0.047398
0.713102 0.874290 0.048626
0.806799 0.880333 0.049859
0.901102 0.886470 0.051087
0.000000 0.004640 0.122282
0.093286 0.011680 0.123512
0.181293 0.017909 0.124721
0.270288 0.023896 0.125965
0.360333 0.029755 0.127189
0.451267 0.035537 0.128404
0.543003 0.041290 0.129622
0.635521 0.046999 0.130849
0.040910 0.123122 0.127564
0.128782 0.128782 0.128782
0.217158 0.134461 0.130000
0.306574 0.140128 0.131231
0.396999 0.145798 0.132464
0.488302 0.151483 0.133686
0.580336 0.157154 0.134912
0.673134 0.162826 0.136145
0.076544 0.239742 0.132847
0.164420 0.245484 0.134073
0.253235 0.251246 0.135300
0.343051 0.256991 0.136515
0.433835 0.262746 0.137757
0.525424 0.268515 0.138960
0.617811 0.274287 0.140195
0.710824 0.280070 0.141430
0.112010 0.358118 0.138127
0.200227 0.363943 0.139357
0.289446 0.369783 0.140569
0.379651 0.375636 0.141810
0.470803 0.381465 0.143036
0.562703 0.387310 0.144264
0.655365 0.393165 0.145482
0.748660 0.399031 0.146700
0.147586 0.478171 0.143415
0.236197 0.484061 0.144647
0.325830 0.489947 0.145865
0.416430 0.495875 0.147084
0.507902 0.501798 0.148317
0.600141 0.507715 0.149549
0.693033 0.513626 0.150768
0.786618 0.519529 0.152014
0.183303 0.599522 0.148705
0.272335 0.605514 0.149937
0.362365 0.611488 0.151160
0.453325 0.617443 0.152384
0.545093 0.623435 0.153615
0.637650 0.629408 0.154852
0.730837 0.635414 0.156068
0.824619 0.641400 0.157296
0.219184 0.722138 0.154012
0.308632 0.728184 0.155226
0.399072 0.734200 0.156470
0.490358 0.740243 0.157697
0.582460 0.746255 0.158902
0.675288 0.752297 0.160143
0.768688 0.758312 0.161385
0.862776 0.764353 0.162609
0.255234 0.845868 0.159307
0.345101 0.851928 0.160525
0.435888 0.858011 0.161767
0.527475 0.864052 0.162995
0.619913 0.870121 0.164227
0.712988 0.876217 0.165437
0.806677 0.882335 0.166682
0.900971 0.888410 0.167903
0.000000 0.007117 0.239893
0.093146 0.013722 0.241133
0.181164 0.019855 0.242373
0.270159 0.025786 0.243623
0.360180 0.031620 0.244844
0.451136 0.037391 0.246094
0.542857 0.043120 0.247325
0.635361 0.048829 0.248588
0.040782 0.124948 0.245240
0.128656 0.130615 0.246494
0.217044 0.136276 0.247726
0.306435 0.141943 0.248957
0.396877 0.147609 0.250220
0.488165 0.153288 0.251464
0.580235 0.158973 0.252707
0.672968 0.164661 0.253950
0.076419 0.241586 0.250593
0.164299 0.247325 0.251837
0.253080 0.253080 0.253080
0.342902 0.258848 0.254325
0.433707 0.264599 0.255579
0.525329 0.270385 0.256834
0.617653 0.276154 0.258057
0.710711 0.281924 0.259322
0.111894 0.359989 0.255956
0.200091 0.365829 0.257210
0.289311 0.371648 0.258468
0.379533 0.377523 0.259702
0.470669 0.383371 0.260937
0.562604 0.389191 0.262203
0.655256 0.395061 0.263449
0.748542 0.400901 0.264694
0.147449 0.480023 0.261348
0.236047 0.485972 0.262586
0.325686 0.491872 0.263832
0.416264 0.497767 0.265078
0.507762 0.503703 0.266324
0.599986 0.509586 0.267580
0.692921 0.515509 0.268805
0.786497 0.521424 0.270063
0.183174 0.601481 0.266710
0.272205 0.607434 0.267967
0.362250 0.613420 0.269192
0.453193 0.619388 0.270449
0.544995 0.625335 0.271685
0.637490 0.631316 0.272953
0.730722 0.637331 0.274189
0.824494 0.643275 0.275432
0.219041 0.724092 0.272075
0.308492 0.730086 0.273344
0.398909 0.736113 0.274580
0.490221 0.742168 0.275826
0.582308 0.748191 0.277073
0.675123 0.754240 0.278320
0.768569 0.760259 0.279573
0.862649 0.766311 0.280831
0.255109 0.847821 0.277467
0.344952 0.853887 0.278714
0.435760 0.859917 0.279970
0.527379 0.866032 0.281228
0.619756 0.872106 0.282453
0.712875 0.878209 0.283716
0.806555 0.884273 0.284952
0.900841 0.890359 0.286222
0.000000 0.009335 0.359264
0.093024 0.015720 0.360524
0.181037 0.021776 0.361788
0.270030 0.027665 0.363058
0.360066 0.033484 0.364328
0.451005 0.039243 0.365560
0.542760 0.044960 0.366834
0.635255 0.050661 0.368115
0.040654 0.126753 0.364713
0.128530 0.132422 0.365983
0.216902 0.138083 0.367222
0.306330 0.143772 0.368503
0.396715 0.149435 0.369744
0.488028 0.155109 0.371024
0.580083 0.160811 0.372274
0.672857 0.166487 0.373564
0.076294 0.243440 0.370171
0.164178 0.249173 0.371414
0.252955 0.254952 0.372665
0.342790 0.260684 0.373955
0.433580 0.266452 0.375206
0.525186 0.272238 0.376459
0.617548 0.277992 0.377720
0.710597 0.283783 0.378981
0.111759 0.361865 0.375597
0.199955 0.367727 0.376853
0.289176 0.373564 0.378114
0.379375 0.379375 0.379375
0.470535 0.385238 0.380636
0.562456 0.391072 0.381902
0.655094 0.396918 0.383173
0.748425 0.402776 0.384444
0.147335 0.481929 0.381030
0.235928 0.487845 0.382299
0.325578 0.493758 0.383570
0.416139 0.499666 0.384841
0.507622 0.505569 0.386112
0.599831 0.511512 0.387350
0.692753 0.517448 0.388631
0.786316 0.523329 0.389911
0.183045 0.603389 0.386509
0.272075 0.609354 0.387750
0.362096 0.615300 0.389031
0.453062 0.621280 0.390272
0.544850 0.627292 0.391552
0.637384 0.633232 0.392803
0.730548 0.639257 0.394093
0.824370 0.645207 0.395344
0.218927 0.726052 0.391956
0.308353 0.732055 0.393206
0.398787 0.738085 0.394497
0.490084 0.744092 0.395747
0.582207 0.750126 0.396999
0.675012 0.756187 0.398259
0.768450 0.762216 0.399559
0.862458 0.768270 0.400819
0.254983 0.849717 0.397405
0.344840 0.855787 0.398665
0.435631 0.861886 0.399925
0.527235 0.867949 0.401185
0.619650 0.874033 0.402449
0.712704 0.880139 0.403718
0.806433 0.886211 0.404988
0.900710 0.892307 0.406257
0.000000 0.011450 0.480341
0.092904 0.017689 0.481611
0.180909 0.023677 0.482882
0.269901 0.029539 0.484152
0.359913 0.035331 0.485424
0.450873 0.041084 0.486703
0.542614 0.046788 0.487983
0.635095 0.052483 0.489262
0.040526 0.128593 0.485835
0.128404 0.134245 0.487114
0.216788 0.139908 0.488394
0.306190 0.145595 0.489673
0.396594 0.151276 0.490952
0.487891 0.156942 0.492240
0.579932 0.162633 0.493482
0.672692 0.168319 0.494771
0.076155 0.245271 0.491366
0.164034 0.251028 0.492608
0.252831 0.256803 0.493896
0.342641 0.262554 0.495185
0.433410 0.268322 0.496473
0.525043 0.274092 0.497721
0.617390 0.279871 0.499018
0.710426 0.285620 0.500315
0.111625 0.363751 0.496841
0.199820 0.369589 0.498138
0.289041 0.375402 0.499435
0.379257 0.381267 0.500686
0.470400 0.387110 0.501983
0.562307 0.392964 0.503236
0.654985 0.398828 0.504543
0.748249 0.404660 0.505802
0.147198 0.483834 0.502354
0.235808 0.489764 0.503656
0.325434 0.495645 0.504916
0.416014 0.501566 0.506222
0.507482 0.507482 0.507482
0.599728 0.513391 0.508741
0.692641 0.519340 0.510056
0.786195 0.525234 0.511324
0.182916 0.605306 0.507902
0.271945 0.611279 0.509163
0.361980 0.617233 0.510431
0.452931 0.623224 0.511747
0.544704 0.629197 0.513015
0.637224 0.635148 0.514283
0.730432 0.641186 0.515556
0.824246 0.647148 0.516833
0.218784 0.727954 0.513391
0.308248 0.733968 0.514706
0.398665 0.740010 0.515982
0.489947 0.746020 0.517259
0.582056 0.752062 0.518536
0.674846 0.758135 0.519813
0.768330 0.764174 0.521091
0.862331 0.770181 0.522377
0.254858 0.851675 0.518914
0.344691 0.857756 0.520191
0.435503 0.863860 0.521472
0.527091 0.869930 0.522758
0.619493 0.876025 0.524043
0.712590 0.882077 0.525329
0.806250 0.888215 0.526615
0.900580 0.894256 0.527906
0.000000 0.013498 0.602770
0.092766 0.019629 0.604061
0.180782 0.025572 0.605358
0.269772 0.031408 0.606655
0.359798 0.037186 0.607953
0.450699 0.042921 0.609250
0.542468 0.048626 0.610495
0.634989 0.054304 0.611801
0.040398 0.130402 0.608368
0.128278 0.136058 0.609613
0.216645 0.141743 0.610913
0.306051 0.147404 0.612219
0.396473 0.153078 0.613524
0.487754 0.158760 0.614778
0.579831 0.164468 0.616084
0.672581 0.170145 0.617390
0.076032 0.247140 0.613890
0.163913 0.252893 0.615196
0.252707 0.258626 0.616501
0.342529 0.264407 0.617758
0.433282 0.270159 0.619072
0.524901 0.275924 0.620386
0.617285 0.281725 0.621648
0.710312 0.287491 0.622962
0.111509 0.365637 0.619493
0.199711 0.371453 0.620754
0.288906 0.377287 0.622068
0.379139 0.383133 0.623330
0.470266 0.388991 0.624648
0.562158 0.394819 0.625917
0.654822 0.400697 0.627240
0.748132 0.406544 0.628509
0.147084 0.485744 0.625071
0.235658 0.491642 0.626340
0.325289 0.497535 0.627663
0.415889 0.503470 0.628932
0.507342 0.509398 0.630202
0.599573 0.515320 0.631529
0.692529 0.521234 0.632806
0.786074 0.527139 0.634084
0.182787 0.607226 0.630625
0.271815 0.613159 0.631901
0.361826 0.619177 0.633232
0.452799 0.625124 0.634510
0.544558 0.631103 0.635787
0.637118 0.637118 0.637118
0.730259 0.643060 0.638400
0.824121 0.649088 0.639686
0.218670 0.729913 0.636213
0.308109 0.735939 0.637490
0.398543 0.741934 0.638775
0.489810 0.747956 0.640114
0.581904 0.754004 0.641400
0.674736 0.760023 0.642685
0.768151 0.766074 0.643971
0.862204 0.772151 0.645261
0.254701 0.853634 0.641775
0.344579 0.859726 0.643060
0.435374 0.865777 0.644346
0.526948 0.871849 0.645692
0.619388 0.877952 0.646986
0.712419 0.884080 0.648280
0.806127 0.890164 0.649573
0.900449 0.896204 0.650867
0.000000 0.015500 0.726455
0.092645 0.021553 0.727781
0.180654 0.027458 0.729049
0.269644 0.033273 0.730374
0.359646 0.039035 0.731649
0.450568 0.044757 0.732983
0.542322 0.050455 0.734258
0.634829 0.056122 0.735591
0.040271 0.132231 0.732055
0.128152 0.137887 0.733388
0.216531 0.143571 0.734664
0.305911 0.149229 0.735997
0.396352 0.154922 0.737273
0.487617 0.160597 0.738610
0.579679 0.166292 0.739893
0.672416 0.171978 0.741176
0.075909 0.248988 0.737678
0.163792 0.254732 0.739018
0.252582 0.260494 0.740301
0.342380 0.266260 0.741584
0.433154 0.272010 0.742926
0.524758 0.277795 0.744209
0.617128 0.283549 0.745492
0.710198 0.289344 0.746841
0.111375 0.367494 0.743334
0.199575 0.373329 0.744617
0.288772 0.379178 0.745903
0.378981 0.385000 0.747252
0.470132 0.390872 0.748542
0.562059 0.396715 0.749833
0.654714 0.402571 0.751124
0.748015 0.408437 0.752473
0.146948 0.487617 0.748953
0.235538 0.493528 0.750244
0.325181 0.499435 0.751534
0.415765 0.505382 0.752883
0.507202 0.511277 0.754181
0.599470 0.517212 0.755479
0.692362 0.523139 0.756778
0.785953 0.529057 0.758076
0.182659 0.609146 0.754594
0.271685 0.615091 0.755892
0.361711 0.621070 0.757191
0.452668 0.627081 0.758489
0.544461 0.633019 0.759787
0.636958 0.639043 0.761088
0.730144 0.644992 0.762394
0.823935 0.650974 0.763700
0.218528 0.731823 0.760200
0.307969 0.737852 0.761504
0.398381 0.743859 0.762809
0.489673 0.749892 0.764115
0.581803 0.755951 0.765421
0.674570 0.761978 0.766727
0.768032 0.768032 0.768032
0.862077 0.774061 0.769345
0.254575 0.855596 0.765836
0.344430 0.861696 0.767142
0.435203 0.867757 0.768450
0.526806 0.873840 0.769763
0.619230 0.879945 0.771076
0.712305 0.886018 0.772390
0.806005 0.892112 0.773643
0.900253 0.898163 0.774957
0.000000 0.017467 0.851233
0.092524 0.023466 0.852560
0.180527 0.029328 0.853887
0.269515 0.035125 0.855151
0.359531 0.040867 0.856486
0.450438 0.046579 0.857820
0.542225 0.052272 0.859091
0.634669 0.057951 0.860425
0.040143 0.134052 0.856867
0.128026 0.139710 0.858201
0.216388 0.145392 0.859536
0.305807 0.151068 0.860870
0.396190 0.156729 0.862141
0.487480 0.162416 0.863477
0.579527 0.168098 0.864754
0.672306 0.173799 0.866096
0.075786 0.250811 0.862585
0.163647 0.256583 0.863860
0.252427 0.262330 0.865202
0.342268 0.268096 0.866479
0.433027 0.273864 0.867821
0.524615 0.279639 0.869163
0.616971 0.285420 0.870441
0.710027 0.291198 0.871785
0.111259 0.369356 0.868205
0.199440 0.375206 0.869546
0.288637 0.381030 0.870888
0.378863 0.386910 0.872170
0.469998 0.392762 0.873519
0.561910 0.398584 0.874804
0.654551 0.404455 0.876153
0.747839 0.410335 0.877438
0.146813 0.489536 0.873905
0.235419 0.495461 0.875254
0.325037 0.501334 0.876539
0.415640 0.507248 0.877824
0.507109 0.513203 0.879173
0.599316 0.519104 0.880462
0.692250 0.525043 0.881819
0.785772 0.530975 0.883111
0.182530 0.611070 0.879558
0.271555 0.617024 0.880914
0.361595 0.623014 0.882206
0.452537 0.628985 0.883498
0.544315 0.634935 0.884855
0.636798 0.640918 0.886147
0.730028 0.646932 0.887439
0.823811 0.652924 0.888800
0.218414 0.733794 0.885242
0.307830 0.739776 0.886599
0.398259 0.745844 0.887891
0.489536 0.751886 0.889190
0.581651 0.757899 0.890489
0.674460 0.763937 0.891853
0.767914 0.770002 0.893152
0.861950 0.776032 0.894451
0.254450 0.857566 0.890943
0.344318 0.863604 0.892242
0.435074 0.869738 0.893541
0.526710 0.875768 0.894905
0.619072 0.881883 0.896204
0.712191 0.887955 0.897510
0.805883 0.894061 0.898816
0.900122 0.900122 0.900122
