LUTs/Nuke_Round_Trip.cube
TITLE "Generated by Foundry::LUT"
LUT_3D_SIZE 5
DOMAIN_MIN 0.000000 0.000000 0.000000
DOMAIN_MAX 0.903226 0.903226 0.903226
0.000000 0.000000 0.000000
0.159331 0.014398 0.005137
0.315319 0.024947 0.007921
0.474252 0.035135 0.010472
0.635627 0.045164 0.012907
0.067801 0.208581 0.013655
0.222061 0.218613 0.016003
0.379296 0.228640 0.018317
0.539262 0.238685 0.020596
0.701526 0.248742 0.022848
0.129916 0.416097 0.023552
0.285286 0.426369 0.025786
0.443713 0.436659 0.028000
0.604631 0.446918 0.030205
0.767795 0.457227 0.032395
0.192385 0.628139 0.033081
0.349034 0.638615 0.035263
0.508555 0.649088 0.037442
0.670384 0.659548 0.039610
0.834269 0.670055 0.041779
0.255360 0.843920 0.042455
0.413229 0.854519 0.044622
0.573787 0.865138 0.046776
0.736461 0.875832 0.048936
0.901102 0.886470 0.051087
0.000000 0.006537 0.210315
0.159116 0.017856 0.212499
0.315106 0.028241 0.214632
0.473982 0.038366 0.216816
0.635414 0.048375 0.218984
0.067584 0.211825 0.219641
0.221831 0.221831 0.221831
0.379060 0.231852 0.223999
0.539021 0.241918 0.226151
0.701300 0.251961 0.228317
0.129685 0.419393 0.229022
0.285053 0.429668 0.231170
0.443497 0.439959 0.233364
0.604424 0.450221 0.235538
0.767558 0.460534 0.237694
0.192172 0.631476 0.238383
0.348808 0.641989 0.240558
0.508321 0.652436 0.242708
0.670164 0.662932 0.244905
0.834081 0.673410 0.247079
0.255140 0.847315 0.247756
0.413021 0.857947 0.249943
0.573536 0.868588 0.252116
0.736229 0.879237 0.254293
0.900841 0.889904 0.256458
0.000000 0.010403 0.419644
0.158878 0.021241 0.421864
0.314858 0.031519 0.424090
0.473757 0.041594 0.426285
0.635148 0.051567 0.428522
0.067354 0.215027 0.429201
0.221600 0.225046 0.431454
0.378824 0.235089 0.433665
0.538779 0.245149 0.435888
0.701074 0.255203 0.438115
0.129475 0.422702 0.438801
0.284852 0.432942 0.441038
0.443238 0.443238 0.443238
0.604164 0.453544 0.445484
0.767320 0.463853 0.447700
0.191933 0.634882 0.448395
0.348583 0.645315 0.450612
0.508088 0.655799 0.452843
0.669945 0.666321 0.455076
0.833831 0.676835 0.457315
0.254921 0.850727 0.458020
0.412771 0.861378 0.460225
0.573285 0.871977 0.462477
0.735997 0.882658 0.464697
0.900645 0.893282 0.466918
0.000000 0.013999 0.633551
0.158666 0.024578 0.635840
0.314645 0.034772 0.638079
0.473531 0.044802 0.640329
0.634935 0.054762 0.642632
0.067138 0.218242 0.643328
0.221370 0.228258 0.645585
0.378587 0.238323 0.647848
0.538538 0.248372 0.650112
0.700849 0.258436 0.652382
0.129244 0.425990 0.653087
0.284618 0.436274 0.655365
0.443022 0.446570 0.657643
0.603957 0.456874 0.659875
0.767083 0.467184 0.662168
0.191720 0.638240 0.662877
0.348357 0.648711 0.665114
0.507855 0.659166 0.667419
0.669670 0.669670 0.669670
0.833581 0.680154 0.671921
0.254670 0.854140 0.672636
0.412522 0.864754 0.674957
0.573034 0.875446 0.677222
0.735765 0.886082 0.679487
0.900383 0.896726 0.681766
0.000000 0.017467 0.851233
0.158453 0.027871 0.853508
0.314397 0.038005 0.855850
0.473308 0.048008 0.858138
0.634669 0.057951 0.860425
0.066907 0.221456 0.861124
0.221139 0.231496 0.863413
0.378390 0.241556 0.865777
0.538297 0.251619 0.868077
0.700567 0.261697 0.870377
0.129034 0.429286 0.871080
0.284384 0.439571 0.873391
0.442807 0.449873 0.875704
0.603698 0.460181 0.877952
0.766845 0.470490 0.880268
0.191481 0.641614 0.880979
0.348094 0.652056 0.883304
0.507622 0.662550 0.885630
0.669451 0.673023 0.887891
0.833331 0.683545 0.890229
0.254450 0.857566 0.890943
0.412316 0.868205 0.893217
0.572833 0.878851 0.895555
0.735533 0.889514 0.897837
0.900122 0.900122 0.900122
