LUTs/Nuke_Round_Trip.3dl
# Generated by Nuke for flame
# Dimensions 32x32x32
# Input bit depth 16
# Output bit depth 16
0 2114 4228 6342 8456 10570 12684 14798 16912 19026 21140 23254 25368 27482 29596 31710 33825 35939 38053 40167 42281 44395 46509 48623 50737 52851 54965 57079 59193 61307 63421 65535 
0 0 0
0 77 2267
0 154 4194
0 233 6104
0 304 8014
0 349 9929
0 389 11853
0 428 13783
0 466 15721
0 504 17667
0 540 19617
0 576 21581
0 612 23544
0 647 25521
0 682 27501
0 716 29488
0 750 31479
0 784 33476
0 818 35481
0 851 37488
0 885 39503
0 917 41520
0 950 43549
0 983 45576
0 1016 47608
0 1048 49646
0 1081 51690
0 1113 53737
0 1145 55786
0 1177 57841
0 1209 59900
0 1241 61967
870 2251 225
867 2281 2356
865 2312 4280
862 2342 6190
860 2373 8101
858 2402 10017
855 2433 11940
853 2463 13871
850 2493 15809
848 2524 17754
846 2554 19705
844 2584 21669
841 2615 23634
839 2645 25611
837 2675 27589
835 2705 29577
832 2735 31568
830 2765 33565
827 2795 35570
825 2825 37580
822 2855 39594
820 2885 41610
818 2915 43639
815 2946 45668
813 2976 47699
811 3006 49738
808 3036 51781
806 3065 53830
804 3095 55877
801 3125 57934
799 3155 59996
796 3186 62060
1495 4162 381
1493 4192 2444
1491 4221 4367
1489 4252 6277
1487 4281 8187
1484 4311 10104
1482 4341 12028
1480 4371 13958
1478 4400 15896
1475 4430 17843
1473 4459 19796
1471 4490 21757
1469 4519 23722
1467 4549 25700
1464 4579 27680
1462 4609 29666
1460 4638 31658
1458 4668 33657
1456 4697 35662
1453 4728 37672
1451 4757 39686
1449 4787 41705
1447 4817 43732
1445 4846 45760
1443 4876 47793
1440 4906 49831
1438 4935 51876
1436 4966 53919
1434 4995 55972
1431 5024 58027
1430 5055 60091
1427 5085 62152
2098 6057 493
2096 6086 2531
2093 6116 4453
2092 6146 6363
2089 6175 8274
2087 6205 10190
2085 6235 12114
2082 6264 14046
2081 6294 15984
2078 6324 17931
2076 6354 19884
2074 6384 21846
2072 6413 23813
2070 6443 25787
2068 6472 27771
2066 6503 29757
2064 6532 31750
2061 6562 33747
2060 6592 35751
2057 6622 37761
2055 6651 39778
2053 6680 41795
2051 6710 43822
2049 6740 45853
2046 6769 47884
2044 6800 49925
2042 6829 51967
2040 6859 54013
2038 6889 56063
2035 6918 58120
2034 6949 60182
2031 6978 62245
2690 7950 598
2687 7979 2619
2685 8010 4540
2683 8039 6450
2681 8069 8360
2679 8098 10276
2677 8129 12201
2675 8159 14133
2673 8188 16072
2671 8218 18018
2668 8248 19973
2666 8278 21935
2664 8307 23901
2662 8337 25877
2660 8367 27859
2658 8397 29846
2656 8427 31839
2654 8456 33837
2652 8487 35841
2650 8515 37853
2648 8546 39869
2645 8575 41887
2643 8606 43916
2641 8635 45941
2639 8666 47975
2637 8695 50014
2635 8724 52059
2633 8754 54107
2631 8785 56155
2629 8815 58213
2627 8844 60277
2624 8874 62338
3277 9849 699
3275 9879 2707
3272 9909 4626
3271 9940 6536
3268 9968 8447
3266 9999 10364
3264 10029 12288
3262 10058 14220
3260 10089 16160
3258 10118 18106
3256 10148 20059
3253 10177 22024
3252 10208 23990
3249 10237 25967
3247 10268 27950
3245 10298 29935
3243 10327 31929
3241 10358 33926
3239 10387 35934
3237 10417 37943
3234 10446 39958
3233 10478 41978
3231 10507 44006
3228 10537 46034
3226 10567 48070
3224 10597 50107
3222 10627 52154
3220 10657 54200
3218 10687 56251
3216 10717 58307
3213 10747 60368
3212 10777 62431
3861 11756 798
3859 11786 2794
3857 11816 4712
3854 11846 6622
3853 11876 8533
3851 11906 10450
3848 11937 12376
3847 11965 14308
3844 11996 16247
3842 12026 18195
3840 12057 20148
3838 12085 22113
3836 12116 24079
3834 12147 26057
3832 12176 28039
3829 12206 30028
3827 12237 32019
3826 12266 34019
3823 12297 36024
3821 12326 38036
3819 12357 40050
3817 12386 42069
3814 12417 44096
3813 12447 46127
3811 12476 48161
3808 12507 50201
3807 12536 52246
3804 12566 54294
3802 12597 56342
3800 12627 58401
3798 12657 60463
3796 12686 62524
4443 13669 895
4441 13701 2881
4440 13730 4799
4438 13761 6708
4435 13790 8620
4433 13821 10537
4431 13851 12462
4429 13882 14394
4426 13911 16336
4424 13941 18283
4423 13972 20238
4421 14002 22203
4419 14031 24170
4416 14060 26145
4414 14092 28128
4412 14121 30118
4410 14151 32109
4407 14181 34109
4406 14211 36114
4404 14243 38125
4402 14273 40142
4400 14303 42161
4397 14332 44190
4395 14362 46219
4393 14392 48253
4391 14423 50290
4389 14453 52337
4387 14483 54383
4385 14513 56434
4383 14543 58490
4381 14574 60555
4378 14604 62621
5024 15591 990
5022 15620 2968
5020 15650 4885
5018 15682 6795
5016 15712 8706
5014 15741 10623
5012 15773 12550
5010 15803 14483
5008 15832 16423
5006 15862 18372
5004 15892 20325
5002 15924 22290
5000 15954 24259
4998 15984 26236
4996 16014 28220
4994 16044 30207
4991 16074 32202
4989 16104 34200
4987 16136 36207
4985 16166 38218
4983 16196 40231
4981 16227 42252
4979 16257 44280
4977 16287 46312
4975 16317 48344
4973 16348 50384
4971 16378 52429
4969 16406 54477
4967 16437 56530
4965 16467 58584
4963 16498 60650
4960 16529 62714
5607 17519 1084
5604 17551 3056
5602 17580 4972
5600 17610 6881
5598 17642 8792
5596 17671 10710
5594 17701 12638
5591 17732 14570
5589 17762 16512
5587 17792 18461
5585 17824 20415
5583 17854 22379
5582 17884 24346
5579 17914 26324
5577 17946 28309
5575 17975 30297
5573 18005 32292
5571 18035 34290
5569 18065 36297
5566 18098 38308
5564 18128 40324
5562 18158 42344
5560 18188 44371
5558 18218 46401
5556 18248 48435
5553 18278 50478
5551 18309 52521
5549 18339 54571
5548 18370 56621
5546 18400 58677
5544 18430 60742
5542 18461 62807
6187 19453 1178
6185 19485 3142
6182 19514 5057
6180 19546 6967
6179 19577 8880
6177 19606 10797
6174 19638 12725
6172 19667 14657
6170 19698 16600
6167 19728 18547
6166 19760 20502
6164 19789 22467
6162 19821 24435
6159 19850 26415
6157 19880 28398
6155 19911 30387
6154 19941 32380
6151 19973 34381
6149 20002 36387
6147 20034 38398
6144 20064 40416
6143 20094 42436
6141 20126 44465
6139 20155 46494
6136 20185 48531
6134 20217 50568
6132 20247 52613
6131 20276 54662
6128 20306 56714
6126 20339 58771
6124 20369 60833
6122 20399 62901
6768 21398 1270
6767 21429 3230
6765 21460 5144
6762 21490 7054
6760 21521 8967
6759 21552 10885
6756 21583 12812
6754 21614 14745
6751 21643 16688
6750 21674 18637
6748 21705 20592
6745 21736 22558
6743 21767 24525
6742 21796 26503
6739 21827 28487
6737 21858 30477
6736 21889 32470
6733 21918 34471
6731 21949 36478
6728 21981 38491
6727 22012 40505
6725 22041 42527
6722 22072 44556
6720 22103 46588
6719 22132 48623
6716 22164 50662
6714 22195 52705
6711 22224 54756
6710 22256 56806
6708 22287 58865
6705 22317 60929
6704 22348 62994
7350 23347 1362
7347 23377 3316
7346 23409 5230
7343 23439 7139
7341 23469 9052
7339 23502 10972
7337 23532 12899
7334 23562 14832
7333 23592 16774
7330 23624 18725
7328 23654 20681
7327 23685 22646
7324 23715 24615
7322 23745 26595
7320 23778 28577
7318 23808 30567
7315 23838 32560
7314 23869 34562
7312 23899 36568
7309 23929 38581
7308 23962 40598
7305 23992 42619
7303 24023 44647
7301 24053 46677
7299 24084 48714
7298 24114 50755
7295 24145 52802
7293 24175 54850
7291 24206 56898
7289 24236 58955
7286 24269 61020
7285 24300 63087
7931 25304 1452
7930 25335 3403
7927 25367 5316
7926 25398 7226
7923 25430 9139
7921 25458 11058
7919 25490 12987
7917 25521 14920
7916 25553 16862
7913 25582 18812
7912 25613 20769
7909 25645 22734
7906 25674 24705
7905 25705 26683
7902 25737 28667
7901 25766 30658
7898 25798 32652
7896 25830 34653
7894 25859 36659
7892 25890 38671
7890 25922 40688
7888 25951 42708
7886 25983 44738
7884 26012 46770
7881 26044 48806
7880 26076 50845
7877 26105 52894
7876 26137 54940
7873 26166 56994
7870 26198 59049
7869 26230 61117
7866 26260 63181
8514 27269 1543
8513 27299 3490
8510 27329 5403
8509 27362 7313
8506 27392 9225
8503 27422 11146
8502 27455 13074
8499 27485 15009
8498 27515 16951
8495 27545 18903
8493 27578 20857
8491 27608 22825
8489 27639 24793
8487 27669 26772
8485 27702 28757
8482 27732 30746
8481 27762 32743
8478 27793 34744
8477 27823 36750
8474 27856 38762
8473 27887 40781
8470 27917 42800
8469 27948 44833
8466 27978 46864
8464 28008 48898
8462 28042 50940
8460 28072 52986
8458 28103 55035
8456 28133 57086
8453 28164 59144
8452 28195 61208
8449 28225 63274
9097 29237 1634
9095 29269 3577
9092 29300 5489
9091 29331 7399
9089 29360 9312
9087 29391 11233
9085 29423 13161
9082 29454 15096
9081 29485 17038
9078 29517 18991
9076 29548 20946
9074 29577 22913
9072 29608 24883
9069 29640 26862
9068 29671 28847
9065 29703 30836
9064 29732 32834
9062 29763 34832
9059 29795 36841
9058 29826 38856
9055 29858 40871
9054 29887 42892
9051 29918 44924
9049 29950 46954
9046 29982 48990
9045 30011 51030
9042 30042 53079
9041 30074 55125
9038 30106 57179
9036 30135 59238
9034 30167 61300
9032 30198 63368
9681 31210 1723
9678 31242 3664
9677 31275 5575
9675 31304 7485
9672 31337 9399
9671 31366 11320
9668 31399 13249
9666 31429 15183
9663 31458 17127
9662 31491 19077
9660 31521 21035
9657 31553 23002
9656 31583 24971
9653 31616 26951
9651 31646 28937
9650 31678 30927
9647 31708 32922
9645 31741 34923
9642 31771 36932
9641 31800 38946
9639 31833 40964
9636 31863 42985
9635 31896 45015
9632 31926 47048
9630 31956 49083
9627 31989 51125
9626 32019 53171
9624 32052 55220
9621 32082 57271
9620 32112 59328
9617 32145 61392
9615 32175 63462
10265 33191 1813
10262 33221 3750
10260 33252 5662
10259 33285 7571
10256 33316 9485
10254 33346 11406
10251 33377 13335
10250 33408 15272
10248 33439 17215
10245 33470 19166
10243 33503 21122
10242 33534 23091
10239 33565 25062
10237 33596 27040
10236 33627 29025
10233 33657 31018
10231 33688 33013
10228 33719 35015
10226 33750 37023
10225 33784 39037
10222 33815 41054
10220 33846 43074
10219 33877 45106
10216 33908 47138
10214 33939 49175
10213 33970 51215
10209 34001 53264
10208 34032 55310
10205 34063 57364
10203 34094 59423
10202 34125 61488
10199 34156 63551
10850 35176 1902
10847 35208 3837
10845 35239 5748
10844 35271 7658
10840 35303 9573
10839 35334 11493
10837 35366 13423
10834 35395 15360
10832 35426 17303
10831 35458 19255
10829 35490 21211
10826 35522 23180
10824 35551 25150
10823 35583 27130
10820 35614 29115
10818 35646 31107
10816 35678 33105
10813 35707 35106
10812 35739 37115
10810 35770 39128
10807 35803 41144
10805 35835 43166
10804 35863 45198
10801 35896 47231
10799 35928 49267
10797 35960 51306
10794 35988 53357
10793 36021 55405
10791 36053 57457
10788 36085 59517
10786 36114 61581
10785 36146 63645
11436 37170 1991
11432 37200 3924
11431 37232 5835
11429 37262 7744
11428 37295 9659
11424 37327 11581
11423 37357 13510
11421 37389 15446
11418 37419 17391
11416 37452 19344
11414 37481 21301
11413 37514 23270
11410 37544 25239
11408 37577 27220
11406 37606 29206
11403 37639 31198
11401 37669 33194
11400 37702 35195
11398 37732 37203
11395 37764 39219
11393 37794 41238
11392 37827 43259
11388 37857 45290
11387 37890 47322
11385 37920 49360
11383 37953 51401
11380 37983 53445
11378 38016 55496
11377 38046 57549
11374 38079 59608
11372 38109 61673
11370 38142 63739
12021 39165 2079
12019 39198 4009
12018 39229 5920
12016 39259 7831
12013 39290 9745
12011 39323 11667
12009 39354 13597
12008 39384 15534
12004 39418 17479
12003 39448 19431
12001 39479 21389
11999 39509 23357
11996 39543 25330
11994 39574 27310
11992 39604 29297
11991 39638 31287
11987 39669 33285
11986 39699 35287
11984 39730 37295
11982 39764 39310
11979 39795 41328
11977 39825 43349
11976 39856 45381
11974 39886 47416
11971 39920 49452
11969 39951 51492
11967 39982 53539
11965 40012 55591
11962 40046 57642
11960 40077 59702
11959 40108 61770
11957 40139 63833
12608 41165 2168
12606 41196 4097
12604 41227 6007
12601 41259 7918
12599 41290 9832
12597 41321 11754
12596 41352 13684
12594 41384 15622
12591 41415 17568
12589 41450 19521
12587 41481 21479
12585 41513 23447
12582 41544 25419
12580 41576 27400
12578 41607 29386
12577 41638 31378
12575 41670 33374
12571 41701 35375
12570 41733 37386
12568 41764 39401
12566 41795 41419
12564 41827 43442
12561 41859 45473
12559 41890 47506
12557 41922 49541
12556 41953 51587
12552 41985 53632
12550 42017 55682
12549 42048 57735
12547 42080 59797
12545 42111 61862
12542 42143 63927
13197 43173 2256
13195 43206 4183
13193 43238 6093
13189 43270 8004
13188 43302 9920
13186 43331 11841
13184 43363 13772
13182 43395 15710
13179 43427 17654
13177 43460 19609
13175 43488 21567
13173 43520 23537
13172 43553 25508
13168 43585 27490
13166 43617 29477
13165 43646 31467
13163 43678 33467
13161 43711 35468
13159 43743 37478
13156 43775 39492
13154 43804 41513
13152 43836 43535
13150 43869 45565
13149 43901 47597
13145 43930 49634
13143 43962 51678
13141 43995 53725
13140 44027 55777
13138 44056 57828
13134 44088 59888
13133 44121 61954
13131 44154 64022
13785 45183 2345
13783 45216 4269
13781 45249 6179
13779 45279 8090
13776 45312 10006
13774 45345 11928
13772 45374 13860
13770 45407 15797
13768 45436 17743
13766 45469 19696
13763 45502 21655
13761 45532 23624
13759 45565 25597
13757 45595 27578
13755 45628 29565
13754 45661 31559
13750 45690 33556
13748 45724 35557
13746 45753 37567
13744 45786 39584
13743 45816 41604
13741 45849 43624
13739 45882 45657
13735 45912 47691
13734 45945 49727
13732 45975 51769
13730 46008 53818
13728 46038 55868
13726 46071 57921
13723 46101 59983
13721 46134 62047
13719 46167 64116
14372 47201 2432
14370 47231 4356
14368 47262 6265
14366 47295 8176
14364 47325 10093
14362 47359 12016
14360 47389 13946
14359 47423 15886
14355 47453 17830
14353 47484 19785
14351 47518 21743
14349 47548 23715
14347 47582 25687
14346 47612 27669
14344 47642 29654
14340 47676 31649
14338 47706 33645
14336 47737 35649
14334 47771 37659
14332 47801 39676
14331 47835 41694
14329 47865 43718
14327 47895 45749
14323 47930 47782
14321 47960 49820
14319 47990 51864
14317 48025 53911
14316 48055 55959
14314 48089 58014
14312 48120 60074
14308 48150 62139
14306 48184 64206
14963 49221 2520
14961 49252 4442
14959 49283 6352
14955 49313 8263
14953 49348 10179
14951 49379 12102
14949 49410 14034
14947 49441 15974
14945 49472 17920
14943 49506 19873
14942 49537 21834
14940 49568 23803
14938 49599 25777
14934 49634 27757
14932 49665 29746
14930 49696 31738
14928 49727 33737
14926 49758 35739
14924 49793 37751
14922 49824 39764
14920 49855 41785
14918 49886 43808
14915 49917 45842
14913 49952 47873
14911 49983 49913
14909 50014 51955
14907 50045 54005
14905 50076 56055
14903 50107 58107
14901 50142 60169
14899 50174 62232
14897 50205 64300
15554 51247 2608
15552 51278 4529
15550 51310 6438
15546 51341 8350
15544 51373 10267
15542 51405 12189
15540 51436 14121
15538 51468 16062
15536 51500 18007
15534 51531 19961
15532 51563 21923
15530 51595 23891
15528 51626 25864
15526 51658 27848
15524 51690 29835
15520 51721 31827
15518 51753 33827
15516 51784 35831
15514 51816 37840
15513 51848 39856
15511 51884 41876
15509 51915 43901
15507 51947 45930
15505 51979 47968
15503 52011 50002
15501 52043 52047
15499 52075 54094
15495 52106 56146
15493 52138 58201
15491 52170 60260
15489 52202 62329
15487 52234 64394
16144 53272 2695
16142 53304 4614
16140 53337 6524
16138 53369 8437
16136 53401 10353
16134 53433 12276
16132 53466 14209
16130 53498 16148
16128 53526 18096
16124 53559 20050
16122 53591 22012
16120 53624 23982
16118 53656 25954
16116 53688 27937
16114 53721 29924
16112 53753 31920
16110 53782 33917
16108 53814 35921
16106 53846 37933
16104 53879 39948
16102 53911 41967
16100 53944 43991
16098 53976 46023
16096 54009 48059
16094 54037 50096
16092 54070 52138
16088 54102 54188
16086 54135 56238
16084 54168 58294
16082 54200 60355
16080 54229 62422
16078 54261 64489
16735 55306 2782
16733 55335 4701
16731 55368 6611
16729 55401 8522
